X:1
T:Ratcliffe Highway (2)
Q:1/4=90
M:6/8
L:1/8
K:Ddor
z4zA|A A A A B c|B A zz2(A/2G/2)|FED DEF|G3z(AG)|FDD DDD|C D2z2A|ABA GEF|D3z3||
w:As I was a-walk-ing down Lon-don, From_ Wap-ping to Rat-cliffe High-way, I_ chanced to pop in-to a gin-shop, To spend a long night and a day.

